app/assets/images/archive.svg

<?xml version="1.0" encoding="utf-8"?>
<!-- Generator: Adobe Illustrator 18.0.0, SVG Export Plug-In . SVG Version: 6.00 Build 0)  -->
<!DOCTYPE svg PUBLIC "-//W3C//DTD SVG 1.1//EN" "http://www.w3.org/Graphics/SVG/1.1/DTD/svg11.dtd">
<svg version="1.1" id="Layer_1" xmlns:sketch="http://www.bohemiancoding.com/sketch/ns"
	 xmlns="http://www.w3.org/2000/svg" xmlns:xlink="http://www.w3.org/1999/xlink" x="0px" y="0px" viewBox="0 0 32 32"
	 enable-background="new 0 0 32 32" xml:space="preserve">
<title></title>
<desc></desc>
<g id="Page-1">
	<g id="icon-139-package">
		<path id="package" fill="#BDC2C6" d="M4,13v15h25V13H19v7h-5v-7H4L4,13L4,13z M14,12H4l5-8h6L14,12L14,12z M19,12h10l-5-8h-6
			L19,12L19,12z M15,12h3l-1-8h-1L15,12L15,12z M15,13v6h3v-6H15L15,13z M6,21v1h7v-1H6L6,21z M6,25v1h7v-1H6L6,25z M6,23v1h5v-1H6
			L6,23z"/>
	</g>
</g>
</svg>

<?xml version="1.0" ?><svg height="32px" version="1.1" viewBox="0 0 32 32" width="32px" xmlns="http://www.w3.org/2000/svg" xmlns:sketch="http://www.bohemiancoding.com/sketch/ns" xmlns:xlink="http://www.w3.org/1999/xlink"><title/><desc/><defs/><g fill="none" fill-rule="evenodd" id="Page-1" stroke="none" stroke-width="1"><g fill="#929292" id="icon-139-package"><path d="M4,13 L4,28 L29,28 L29,13 L19,13 L19,20 L14,20 L14,13 L4,13 L4,13 L4,13 Z M14,12 L4,12 L9,4 L15,4 L14,12 L14,12 Z M19,12 L29,12 L24,4 L18,4 L19,12 L19,12 Z M15,12 L18,12 L17,4 L16,4 L15,12 L15,12 Z M15,13 L15,19 L18,19 L18,13 L15,13 L15,13 Z M6,21 L6,22 L13,22 L13,21 L6,21 L6,21 Z M6,25 L6,26 L13,26 L13,25 L6,25 L6,25 Z M6,23 L6,24 L11,24 L11,23 L6,23 L6,23 Z" id="package"/></g></g></svg>
